build/img/icons/arrow-right.svg

<svg width="46" height="46" viewBox="0 0 46 46" fill="none" xmlns="http://www.w3.org/2000/svg">
<path fill-rule="evenodd" clip-rule="evenodd" d="M46 23C46 10.3086 35.6914 0 23 0C10.3086 0 0 10.3086 0 23C0 35.6914 10.3086 46 23 46C35.6914 46 46 35.6914 46 23ZM44 23C44 34.6094 34.6094 44 23 44C11.3906 44 2 34.6094 2 23C2 11.3906 11.3906 2 23 2C34.6094 2 44 11.3906 44 23ZM28 16L35 23L28 30L28 24L10 24V22L28 22V16Z" fill="white"/>
</svg>

<svg width="46" height="46" xmlns="http://www.w3.org/2000/svg">
  <path fill-rule="evenodd" clip-rule="evenodd" d="M46 23C46 10.309 35.691 0 23 0S0 10.309 0 23s10.309 23 23 23 23-10.309 23-23zm-2 0c0 11.61-9.39 21-21 21S2 34.61 2 23 11.39 2 23 2s21 9.39 21 21zm-16-7l7 7-7 7v-6H10v-2h18v-6z"/>
</svg>
